icon/fa/volleyball.svg

<svg xmlns="http://www.w3.org/2000/svg" viewBox="0 0 512 512"><!--! Font Awesome Free 6.1.2 by @fontawesome - https://fontawesome.com License - https://fontawesome.com/license/free (Icons: CC BY 4.0, Fonts: SIL OFL 1.1, Code: MIT License) Copyright 2022 Fonticons, Inc.--><path d="M200.3 106c-14.9-25.76-35.1-52.1-62.9-76.74C55.75 72.05 0 157.4 0 256c0 21.33 2.898 41.94 7.814 61.75C53.59 182.1 155.1 124.9 200.3 106zm181.4 175.1c1.24-9.223 2.414-22.08 2.414-37.65 0-59.1-16.93-157.2-111.5-242.6C267.1.49 261.6 0 256 0c-30.5 0-59.5 5.591-86.6 15.36 93.83 90.15 102.6 198.5 102.8 231.7 15.6 8.84 55.1 28.04 109.5 34.04zm-141.6-34.6c-1-18-3.2-61.8-25.2-111.9-41.3 17-154.5 77.1-188.23 234.6 15.66 31.64 37.52 59.66 64.22 82.23C122 325.1 211.5 263.3 240.1 246.5zm86.4-236.43c74.79 84.9 89.5 175.9 89.5 234 0 15.45-1.042 28.56-2.27 38.61h.55c29.54 0 62.2-4.325 97.16-15.99.16-3.59.56-7.09.56-10.69 0-116.9-78.4-215.28-185.5-245.93zM255.7 274.5c-15.43 9.086-51.89 33.63-84.32 77.86 26.34 20.33 93.51 63.27 189.5 63.27 32.83 0 69.02-5.021 108.1-17.69 19.08-28.59 32.41-61.34 38.71-96.47C474.5 311.1 443 315 414.4 315c-79.8 0-137.9-28.7-158.7-40.5zM153.1 379.3c-14.91 25.71-27.62 56.33-35.03 92.72C158.6 497.2 205.5 512 256 512c69 0 131.5-27.43 177.5-71.82-25.42 5.105-49.71 7.668-72.38 7.668C258.6 447.8 185.5 402.1 153.1 379.3z"/></svg>

<svg xmlns="http://www.w3.org/2000/svg" viewBox="0 0 512 512" height="1em" width="1em">
<!--! Font Awesome Free 6.1.2 by @fontawesome - https://fontawesome.com License - https://fontawesome.com/license/free (Icons: CC BY 4.0, Fonts: SIL OFL 1.1, Code: MIT License) Copyright 2022 Fonticons, Inc.-->
  <path d="M200.3 106C185.4 80.24 165.2 53.9 137.4 29.26C55.75 72.05 0 157.4 0 256c0 21.33 2.898 41.94 7.814 61.75C53.59 182.1 155.1 124.9 200.3 106zM381.7 281.1c1.24-9.223 2.414-22.08 2.414-37.65c0-59.1-16.93-157.2-111.5-242.6C267.1 .4896 261.6 0 256 0C225.5 0 196.5 5.591 169.4 15.36c93.83 90.15 102.6 198.5 102.8 231.7C287.8 255.9 327.3 275.1 381.7 281.1zM240.1 246.5C239.1 228.5 236.9 184.7 214.9 134.6C173.6 151.6 60.4 211.7 26.67 369.2c15.66 31.64 37.52 59.66 64.22 82.23C122 325.1 211.5 263.3 240.1 246.5zM326.5 10.07c74.79 84.9 89.5 175.9 89.5 234c0 15.45-1.042 28.56-2.27 38.61l.5501 .0005c29.54 0 62.2-4.325 97.16-15.99C511.6 263.1 512 259.6 512 256C512 139.1 433.6 40.72 326.5 10.07zM255.7 274.5c-15.43 9.086-51.89 33.63-84.32 77.86c26.34 20.33 93.51 63.27 189.5 63.27c32.83 0 69.02-5.021 108.1-17.69c19.08-28.59 32.41-61.34 38.71-96.47C474.5 311.1 443 315 414.4 315C334.6 315 276.5 286.3 255.7 274.5zM153.1 379.3c-14.91 25.71-27.62 56.33-35.03 92.72C158.6 497.2 205.5 512 256 512c69 0 131.5-27.43 177.5-71.82c-25.42 5.105-49.71 7.668-72.38 7.668C258.6 447.8 185.5 402.1 153.1 379.3z"/>
</svg>
